images/16758511.svg

<?xml version="1.0" encoding="UTF-8"?>
<svg xmlns="http://www.w3.org/2000/svg" xmlns:xlink="http://www.w3.org/1999/xlink" width="300pt" height="300pt" viewBox="0 0 300 300" version="1.1">
<defs>
<g>
<symbol overflow="visible" id="glyph0-0">
<path style="stroke:none;" d="M 0.453125 1.59375 L 0.453125 -6.34375 L 4.953125 -6.34375 L 4.953125 1.59375 Z M 0.953125 1.09375 L 4.453125 1.09375 L 4.453125 -5.84375 L 0.953125 -5.84375 Z M 0.953125 1.09375 "/>
</symbol>
<symbol overflow="visible" id="glyph0-1">
<path style="stroke:none;" d="M 3.546875 -5.953125 C 2.898438 -5.953125 2.382812 -5.710938 2 -5.234375 C 1.625 -4.753906 1.4375 -4.101562 1.4375 -3.28125 C 1.4375 -2.445312 1.625 -1.789062 2 -1.3125 C 2.382812 -0.832031 2.898438 -0.59375 3.546875 -0.59375 C 4.191406 -0.59375 4.703125 -0.832031 5.078125 -1.3125 C 5.453125 -1.789062 5.640625 -2.445312 5.640625 -3.28125 C 5.640625 -4.101562 5.453125 -4.753906 5.078125 -5.234375 C 4.703125 -5.710938 4.191406 -5.953125 3.546875 -5.953125 Z M 3.546875 -6.6875 C 4.460938 -6.6875 5.195312 -6.375 5.75 -5.75 C 6.300781 -5.132812 6.578125 -4.3125 6.578125 -3.28125 C 6.578125 -2.238281 6.300781 -1.410156 5.75 -0.796875 C 5.195312 -0.179688 4.460938 0.125 3.546875 0.125 C 2.617188 0.125 1.878906 -0.179688 1.328125 -0.796875 C 0.773438 -1.410156 0.5 -2.238281 0.5 -3.28125 C 0.5 -4.3125 0.773438 -5.132812 1.328125 -5.75 C 1.878906 -6.375 2.617188 -6.6875 3.546875 -6.6875 Z M 3.546875 -6.6875 "/>
</symbol>
<symbol overflow="visible" id="glyph0-2">
<path style="stroke:none;" d="M 0.890625 -6.5625 L 2.078125 -6.5625 L 4.984375 -1.078125 L 4.984375 -6.5625 L 5.84375 -6.5625 L 5.84375 0 L 4.65625 0 L 1.75 -5.484375 L 1.75 0 L 0.890625 0 Z M 0.890625 -6.5625 "/>
</symbol>
<symbol overflow="visible" id="glyph0-3">
<path style="stroke:none;" d="M 0.890625 -6.5625 L 1.765625 -6.5625 L 1.765625 -3.875 L 5 -3.875 L 5 -6.5625 L 5.890625 -6.5625 L 5.890625 0 L 5 0 L 5 -3.125 L 1.765625 -3.125 L 1.765625 0 L 0.890625 0 Z M 0.890625 -6.5625 "/>
</symbol>
</g>
</defs>
<g id="surface30245">
<rect x="0" y="0" width="300" height="300" style="fill:rgb(100%,100%,100%);fill-opacity:1;stroke:none;"/>
<path style="fill:none;stroke-width:1;stroke-linecap:butt;stroke-linejoin:miter;stroke:rgb(0%,0%,0%);stroke-opacity:1;stroke-miterlimit:10;" d="M 114.164062 144.335938 L 114.164062 144.335938 M 112.316406 146.699219 L 113.238281 147.1875 M 110.46875 149.058594 L 112.308594 150.039062 M 108.621094 151.421875 L 111.382812 152.894531 M 106.773438 153.785156 L 110.453125 155.746094 M 104.921875 156.148438 L 109.527344 158.597656 M 103.113281 158.460938 L 108.617188 161.390625 "/>
<path style="fill:none;stroke-width:1.2;stroke-linecap:butt;stroke-linejoin:miter;stroke:rgb(0%,0%,0%);stroke-opacity:1;stroke-miterlimit:10;" d="M 114.164062 144.335938 L 104.8125 129.351562 "/>
<path style="fill:none;stroke-width:1.2;stroke-linecap:butt;stroke-linejoin:miter;stroke:rgb(0%,0%,0%);stroke-opacity:1;stroke-miterlimit:10;" d="M 114.164062 144.335938 L 131.820312 143.726562 "/>
<path style="fill:none;stroke-width:1.2;stroke-linecap:butt;stroke-linejoin:miter;stroke:rgb(0%,0%,0%);stroke-opacity:1;stroke-miterlimit:10;" d="M 104.8125 129.351562 L 87.15625 129.957031 "/>
<path style="fill:none;stroke-width:1.2;stroke-linecap:butt;stroke-linejoin:miter;stroke:rgb(0%,0%,0%);stroke-opacity:1;stroke-miterlimit:10;" d="M 102.902344 125.257812 L 88.777344 125.742188 "/>
<path style="fill:none;stroke-width:1.2;stroke-linecap:butt;stroke-linejoin:miter;stroke:rgb(0%,0%,0%);stroke-opacity:1;stroke-miterlimit:10;" d="M 87.15625 129.957031 L 78.855469 145.550781 "/>
<path style="fill:none;stroke-width:1.2;stroke-linecap:butt;stroke-linejoin:miter;stroke:rgb(0%,0%,0%);stroke-opacity:1;stroke-miterlimit:10;" d="M 78.855469 145.550781 L 61.203125 146.160156 "/>
<path style="fill:none;stroke-width:1.2;stroke-linecap:butt;stroke-linejoin:miter;stroke:rgb(0%,0%,0%);stroke-opacity:1;stroke-miterlimit:10;" d="M 62.964844 145.058594 L 58.289062 137.566406 "/>
<path style="fill:none;stroke-width:1.2;stroke-linecap:butt;stroke-linejoin:miter;stroke:rgb(100%,0%,0%);stroke-opacity:1;stroke-miterlimit:10;" d="M 58.289062 137.566406 L 53.613281 130.074219 "/>
<path style="fill:none;stroke-width:1.2;stroke-linecap:butt;stroke-linejoin:miter;stroke:rgb(0%,0%,0%);stroke-opacity:1;stroke-miterlimit:10;" d="M 59.441406 147.261719 L 54.761719 139.769531 "/>
<path style="fill:none;stroke-width:1.2;stroke-linecap:butt;stroke-linejoin:miter;stroke:rgb(100%,0%,0%);stroke-opacity:1;stroke-miterlimit:10;" d="M 54.761719 139.769531 L 50.085938 132.277344 "/>
<path style="fill:none;stroke-width:1.2;stroke-linecap:butt;stroke-linejoin:miter;stroke:rgb(0%,0%,0%);stroke-opacity:1;stroke-miterlimit:10;" d="M 61.203125 146.160156 L 57.054688 153.957031 "/>
<path style="fill:none;stroke-width:1.2;stroke-linecap:butt;stroke-linejoin:miter;stroke:rgb(100%,0%,0%);stroke-opacity:1;stroke-miterlimit:10;" d="M 57.054688 153.957031 L 52.902344 161.753906 "/>
<path style=" stroke:none;fill-rule:nonzero;fill:rgb(100%,100%,100%);fill-opacity:1;" d="M 43.847656 125.675781 L 51.847656 125.675781 L 51.847656 136.675781 L 43.847656 136.675781 Z M 43.847656 125.675781 "/>
<g style="fill:rgb(100%,0%,0%);fill-opacity:1;">
  <use xlink:href="#glyph0-1" x="43.847656" y="134.338867"/>
</g>
<path style="fill:none;stroke-width:1.2;stroke-linecap:butt;stroke-linejoin:miter;stroke:rgb(100%,0%,0%);stroke-opacity:1;stroke-miterlimit:10;" d="M 52.902344 161.753906 L 44.078125 162.058594 "/>
<path style="fill:none;stroke-width:1.2;stroke-linecap:butt;stroke-linejoin:miter;stroke:rgb(0%,0%,0%);stroke-opacity:1;stroke-miterlimit:10;" d="M 44.078125 162.058594 L 35.25 162.363281 "/>
<path style=" stroke:none;fill-rule:nonzero;fill:rgb(100%,100%,100%);fill-opacity:1;" d="M 48.902344 156.253906 L 56.902344 156.253906 L 56.902344 167.253906 L 48.902344 167.253906 Z M 48.902344 156.253906 "/>
<g style="fill:rgb(100%,0%,0%);fill-opacity:1;">
  <use xlink:href="#glyph0-1" x="48.902344" y="164.916992"/>
</g>
<path style=" stroke:none;fill-rule:nonzero;fill:rgb(0%,0%,0%);fill-opacity:1;" d="M 131.820312 143.726562 L 142.871094 129.597656 L 137.367188 126.667969 Z M 131.820312 143.726562 "/>
<path style="fill:none;stroke-width:1.2;stroke-linecap:butt;stroke-linejoin:miter;stroke:rgb(0%,0%,0%);stroke-opacity:1;stroke-miterlimit:10;" d="M 131.820312 143.726562 L 136.496094 151.21875 "/>
<path style="fill:none;stroke-width:1.2;stroke-linecap:butt;stroke-linejoin:miter;stroke:rgb(100%,0%,0%);stroke-opacity:1;stroke-miterlimit:10;" d="M 136.496094 151.21875 L 141.171875 158.710938 "/>
<path style="fill:none;stroke-width:1.2;stroke-linecap:butt;stroke-linejoin:miter;stroke:rgb(0%,0%,0%);stroke-opacity:1;stroke-miterlimit:10;" d="M 140.117188 128.132812 L 148.945312 127.828125 "/>
<path style="fill:none;stroke-width:1.2;stroke-linecap:butt;stroke-linejoin:miter;stroke:rgb(0%,0%,100%);stroke-opacity:1;stroke-miterlimit:10;" d="M 148.945312 127.828125 L 157.773438 127.523438 "/>
<path style="fill:none;stroke-width:1.2;stroke-linecap:butt;stroke-linejoin:miter;stroke:rgb(0%,0%,0%);stroke-opacity:1;stroke-miterlimit:10;" d="M 142.027344 132.226562 L 149.089844 131.980469 "/>
<path style="fill:none;stroke-width:1.2;stroke-linecap:butt;stroke-linejoin:miter;stroke:rgb(0%,0%,100%);stroke-opacity:1;stroke-miterlimit:10;" d="M 149.089844 131.980469 L 156.148438 131.738281 "/>
<path style="fill:none;stroke-width:1.2;stroke-linecap:butt;stroke-linejoin:miter;stroke:rgb(0%,0%,100%);stroke-opacity:1;stroke-miterlimit:10;" d="M 157.773438 127.523438 L 162.449219 135.015625 "/>
<path style="fill:none;stroke-width:1.2;stroke-linecap:butt;stroke-linejoin:miter;stroke:rgb(100%,0%,0%);stroke-opacity:1;stroke-miterlimit:10;" d="M 162.449219 135.015625 L 167.125 142.507812 "/>
<path style=" stroke:none;fill-rule:nonzero;fill:rgb(100%,100%,100%);fill-opacity:1;" d="M 154.773438 122.023438 L 161.773438 122.023438 L 161.773438 133.023438 L 154.773438 133.023438 Z M 154.773438 122.023438 "/>
<g style="fill:rgb(0%,0%,100%);fill-opacity:1;">
  <use xlink:href="#glyph0-2" x="154.773438" y="130.686523"/>
</g>
<path style="fill:none;stroke-width:1;stroke-linecap:butt;stroke-linejoin:miter;stroke:rgb(0%,0%,0%);stroke-opacity:1;stroke-miterlimit:10;" d="M 184.78125 141.898438 L 184.78125 141.898438 M 181.808594 141.480469 L 181.847656 142.523438 M 178.839844 141.0625 L 178.910156 143.144531 M 175.867188 140.640625 L 175.976562 143.769531 M 172.898438 140.222656 L 173.042969 144.390625 M 169.925781 139.804688 L 170.105469 145.011719 M 167.019531 139.390625 L 167.234375 145.625 "/>
<path style=" stroke:none;fill-rule:nonzero;fill:rgb(100%,100%,100%);fill-opacity:1;" d="M 163.125 137.007812 L 171.125 137.007812 L 171.125 148.007812 L 163.125 148.007812 Z M 163.125 137.007812 "/>
<g style="fill:rgb(100%,0%,0%);fill-opacity:1;">
  <use xlink:href="#glyph0-1" x="163.125" y="145.670898"/>
</g>
<path style="fill:none;stroke-width:1.2;stroke-linecap:butt;stroke-linejoin:miter;stroke:rgb(0%,0%,0%);stroke-opacity:1;stroke-miterlimit:10;" d="M 184.78125 141.898438 L 193.082031 126.304688 "/>
<path style="fill:none;stroke-width:1.2;stroke-linecap:butt;stroke-linejoin:miter;stroke:rgb(0%,0%,0%);stroke-opacity:1;stroke-miterlimit:10;" d="M 194.132812 156.882812 L 184.78125 141.898438 "/>
<path style="fill:none;stroke-width:1.2;stroke-linecap:butt;stroke-linejoin:miter;stroke:rgb(0%,0%,0%);stroke-opacity:1;stroke-miterlimit:10;" d="M 193.082031 126.304688 L 210.734375 125.695312 "/>
<path style="fill:none;stroke-width:1.2;stroke-linecap:butt;stroke-linejoin:miter;stroke:rgb(0%,0%,0%);stroke-opacity:1;stroke-miterlimit:10;" d="M 194.988281 130.398438 L 209.113281 129.910156 "/>
<path style="fill:none;stroke-width:1.2;stroke-linecap:butt;stroke-linejoin:miter;stroke:rgb(0%,0%,0%);stroke-opacity:1;stroke-miterlimit:10;" d="M 210.734375 125.695312 L 220.089844 140.679688 "/>
<path style="fill:none;stroke-width:1.2;stroke-linecap:butt;stroke-linejoin:miter;stroke:rgb(0%,0%,0%);stroke-opacity:1;stroke-miterlimit:10;" d="M 220.089844 140.679688 L 215.9375 148.476562 "/>
<path style="fill:none;stroke-width:1.2;stroke-linecap:butt;stroke-linejoin:miter;stroke:rgb(100%,0%,0%);stroke-opacity:1;stroke-miterlimit:10;" d="M 215.9375 148.476562 L 211.789062 156.273438 "/>
<path style=" stroke:none;fill-rule:nonzero;fill:rgb(0%,0%,0%);fill-opacity:1;" d="M 220.089844 140.679688 L 237.847656 143.1875 L 237.632812 136.957031 Z M 220.089844 140.679688 "/>
<path style="fill:none;stroke-width:1.2;stroke-linecap:butt;stroke-linejoin:miter;stroke:rgb(100%,0%,0%);stroke-opacity:1;stroke-miterlimit:10;" d="M 211.789062 156.273438 L 202.960938 156.578125 "/>
<path style="fill:none;stroke-width:1.2;stroke-linecap:butt;stroke-linejoin:miter;stroke:rgb(0%,0%,0%);stroke-opacity:1;stroke-miterlimit:10;" d="M 202.960938 156.578125 L 194.132812 156.882812 "/>
<path style=" stroke:none;fill-rule:nonzero;fill:rgb(100%,100%,100%);fill-opacity:1;" d="M 207.789062 150.773438 L 215.789062 150.773438 L 215.789062 161.773438 L 207.789062 161.773438 Z M 207.789062 150.773438 "/>
<g style="fill:rgb(100%,0%,0%);fill-opacity:1;">
  <use xlink:href="#glyph0-1" x="207.789062" y="159.436523"/>
</g>
<path style="fill:none;stroke-width:1;stroke-linecap:butt;stroke-linejoin:miter;stroke:rgb(0%,0%,0%);stroke-opacity:1;stroke-miterlimit:10;" d="M 194.132812 156.882812 L 194.132812 156.882812 M 192.285156 159.246094 L 193.207031 159.734375 M 190.4375 161.609375 L 192.277344 162.589844 M 188.589844 163.972656 L 191.351562 165.441406 M 186.742188 166.335938 L 190.421875 168.292969 M 184.894531 168.699219 L 189.496094 171.148438 M 183.082031 171.011719 L 188.585938 173.941406 "/>
<path style="fill:none;stroke-width:1.2;stroke-linecap:butt;stroke-linejoin:miter;stroke:rgb(0%,0%,0%);stroke-opacity:1;stroke-miterlimit:10;" d="M 185.835938 172.476562 L 177.007812 172.78125 "/>
<path style="fill:none;stroke-width:1.2;stroke-linecap:butt;stroke-linejoin:miter;stroke:rgb(100%,0%,0%);stroke-opacity:1;stroke-miterlimit:10;" d="M 177.007812 172.78125 L 168.179688 173.085938 "/>
<path style=" stroke:none;fill-rule:nonzero;fill:rgb(100%,100%,100%);fill-opacity:1;" d="M 153.179688 167.585938 L 168.179688 167.585938 L 168.179688 178.585938 L 153.179688 178.585938 Z M 153.179688 167.585938 "/>
<g style="fill:rgb(100%,0%,0%);fill-opacity:1;">
  <use xlink:href="#glyph0-3" x="153.179688" y="176.249023"/>
  <use xlink:href="#glyph0-1" x="160.194336" y="176.249023"/>
</g>
<path style="fill:none;stroke-width:1.2;stroke-linecap:butt;stroke-linejoin:miter;stroke:rgb(0%,0%,0%);stroke-opacity:1;stroke-miterlimit:10;" d="M 237.742188 140.074219 L 247.097656 155.058594 "/>
<path style="fill:none;stroke-width:1.2;stroke-linecap:butt;stroke-linejoin:miter;stroke:rgb(0%,0%,0%);stroke-opacity:1;stroke-miterlimit:10;" d="M 247.167969 157.132812 L 264.820312 156.523438 "/>
<path style="fill:none;stroke-width:1.2;stroke-linecap:butt;stroke-linejoin:miter;stroke:rgb(0%,0%,0%);stroke-opacity:1;stroke-miterlimit:10;" d="M 247.023438 152.980469 L 264.679688 152.371094 "/>
<path style="fill:none;stroke-width:1.2;stroke-linecap:butt;stroke-linejoin:miter;stroke:rgb(100%,0%,0%);stroke-opacity:1;stroke-miterlimit:10;" d="M 141.171875 158.710938 L 137.023438 166.507812 "/>
<path style="fill:none;stroke-width:1.2;stroke-linecap:butt;stroke-linejoin:miter;stroke:rgb(0%,0%,0%);stroke-opacity:1;stroke-miterlimit:10;" d="M 137.023438 166.507812 L 132.875 174.304688 "/>
<path style=" stroke:none;fill-rule:nonzero;fill:rgb(100%,100%,100%);fill-opacity:1;" d="M 137.171875 153.210938 L 145.171875 153.210938 L 145.171875 164.210938 L 137.171875 164.210938 Z M 137.171875 153.210938 "/>
<g style="fill:rgb(100%,0%,0%);fill-opacity:1;">
  <use xlink:href="#glyph0-1" x="137.171875" y="161.874023"/>
</g>
</g>
</svg>

<svg xmlns="http://www.w3.org/2000/svg" xmlns:xlink="http://www.w3.org/1999/xlink" width="300pt" height="300pt" viewBox="0 0 300 300"><defs><symbol overflow="visible"><path d="M.453 1.594v-7.938h4.5v7.938zm.5-.5h3.5v-6.938h-3.5zm0 0"/></symbol><symbol overflow="visible" id="a"><path d="M3.547-5.953c-.65 0-1.164.242-1.547.72-.375.48-.563 1.13-.563 1.952 0 .835.188 1.49.563 1.967.383.48.898.72 1.547.72.644 0 1.156-.24 1.53-.72.376-.476.564-1.132.564-1.968 0-.822-.187-1.474-.562-1.954-.375-.477-.887-.72-1.53-.72zm0-.734c.914 0 1.648.312 2.203.937.55.617.828 1.438.828 2.47 0 1.042-.277 1.87-.828 2.483-.555.617-1.29.922-2.203.922-.93 0-1.668-.305-2.22-.922C.774-1.41.5-2.237.5-3.28c0-1.033.273-1.853.828-2.47.55-.625 1.29-.938 2.22-.938zm0 0"/></symbol><symbol overflow="visible" id="b"><path d="M.89-6.563H2.08l2.906 5.485v-5.484h.86V0H4.656L1.75-5.484V0H.89zm0 0"/></symbol><symbol overflow="visible" id="c"><path d="M.89-6.563h.876v2.688H5v-2.688h.89V0H5v-3.125H1.766V0H.89zm0 0"/></symbol></defs><g><path fill="#fff" d="M0 0h300v300H0z"/><path d="M114.164 144.336m-1.848 2.363l.922.488m-2.77 1.87l1.84.98m-3.687 1.384l2.763 1.473m-4.61.89l3.68 1.96m-5.53.403l4.604 2.45m-6.414-.137l5.504 2.93" stroke="#000" stroke-miterlimit="10" fill="none"/><path d="M114.164 144.336l-9.352-14.984M114.164 144.336l17.656-.61M104.813 129.352l-17.657.605M102.902 125.258l-14.125.484M87.156 129.957l-8.3 15.594M78.855 145.55l-17.652.61M62.965 145.06l-4.676-7.494" stroke-width="1.2" stroke="#000" stroke-miterlimit="10" fill="none"/><path d="M58.29 137.566l-4.677-7.492" stroke-width="1.2" stroke="#f00" stroke-miterlimit="10" fill="none"/><path d="M59.44 147.262l-4.678-7.492" stroke-width="1.2" stroke="#000" stroke-miterlimit="10" fill="none"/><path d="M54.762 139.77l-4.676-7.493" stroke-width="1.2" stroke="#f00" stroke-miterlimit="10" fill="none"/><path d="M61.203 146.16l-4.148 7.797" stroke-width="1.2" stroke="#000" stroke-miterlimit="10" fill="none"/><path d="M57.055 153.957l-4.153 7.797" stroke-width="1.2" stroke="#f00" stroke-miterlimit="10" fill="none"/><path d="M43.848 125.676h8v11h-8zm0 0" fill="#fff"/><use xlink:href="#a" x="43.848" y="134.339" fill="#f00"/><path d="M52.902 161.754l-8.824.305" stroke-width="1.2" stroke="#f00" stroke-miterlimit="10" fill="none"/><path d="M44.078 162.06l-8.828.303" stroke-width="1.2" stroke="#000" stroke-miterlimit="10" fill="none"/><path d="M48.902 156.254h8v11h-8zm0 0" fill="#fff"/><use xlink:href="#a" x="48.902" y="164.917" fill="#f00"/><path d="M131.82 143.727l11.05-14.13-5.503-2.93zm0 0"/><path d="M131.82 143.727l4.676 7.492" stroke-width="1.2" stroke="#000" stroke-miterlimit="10" fill="none"/><path d="M136.496 151.22l4.676 7.49" stroke-width="1.2" stroke="#f00" stroke-miterlimit="10" fill="none"/><path d="M140.117 128.133l8.828-.305" stroke-width="1.2" stroke="#000" stroke-miterlimit="10" fill="none"/><path d="M148.945 127.828l8.828-.305" stroke-width="1.2" stroke="#00f" stroke-miterlimit="10" fill="none"/><path d="M142.027 132.227l7.063-.247" stroke-width="1.2" stroke="#000" stroke-miterlimit="10" fill="none"/><path d="M149.09 131.98l7.058-.242M157.773 127.523l4.676 7.493" stroke-width="1.2" stroke="#00f" stroke-miterlimit="10" fill="none"/><path d="M162.45 135.016l4.675 7.492" stroke-width="1.2" stroke="#f00" stroke-miterlimit="10" fill="none"/><path d="M154.773 122.023h7v11h-7zm0 0" fill="#fff"/><use xlink:href="#b" x="154.773" y="130.687" fill="#00f"/><path d="M184.78 141.898m-2.97-.418l.038 1.043m-3.008-1.46l.07 2.082m-3.043-2.504l.11 3.13m-3.08-3.547l.146 4.168m-3.117-4.585l.18 5.207m-3.086-5.62l.214 6.233" stroke="#000" stroke-miterlimit="10" fill="none"/><path d="M163.125 137.008h8v11h-8zm0 0" fill="#fff"/><use xlink:href="#a" x="163.125" y="145.671" fill="#f00"/><path d="M184.78 141.898l8.302-15.593M194.133 156.883l-9.352-14.985M193.082 126.305l17.652-.61M194.988 130.398l14.125-.488M210.734 125.695l9.356 14.985M220.09 140.68l-4.153 7.797" stroke-width="1.2" stroke="#000" stroke-miterlimit="10" fill="none"/><path d="M215.938 148.477l-4.15 7.796" stroke-width="1.2" stroke="#f00" stroke-miterlimit="10" fill="none"/><path d="M220.09 140.68l17.758 2.507-.215-6.23zm0 0"/><path d="M211.79 156.273l-8.83.305" stroke-width="1.2" stroke="#f00" stroke-miterlimit="10" fill="none"/><path d="M202.96 156.578l-8.827.305" stroke-width="1.2" stroke="#000" stroke-miterlimit="10" fill="none"/><path d="M207.79 150.773h8v11h-8zm0 0" fill="#fff"/><use xlink:href="#a" x="207.789" y="159.437" fill="#f00"/><path d="M194.133 156.883m-1.848 2.363l.922.488m-2.77 1.875l1.84.98m-3.687 1.383l2.762 1.468m-4.61.896l3.68 1.957m-5.527.406l4.6 2.448m-6.413-.136l5.504 2.93" stroke="#000" stroke-miterlimit="10" fill="none"/><path d="M185.836 172.477l-8.828.304" stroke-width="1.2" stroke="#000" stroke-miterlimit="10" fill="none"/><path d="M177.008 172.78l-8.828.306" stroke-width="1.2" stroke="#f00" stroke-miterlimit="10" fill="none"/><path d="M153.18 167.586h15v11h-15zm0 0" fill="#fff"/><g fill="#f00"><use xlink:href="#c" x="153.18" y="176.249"/><use xlink:href="#a" x="160.194" y="176.249"/></g><path d="M237.742 140.074l9.356 14.985M247.168 157.133l17.652-.61M247.023 152.98l17.657-.61" stroke-width="1.2" stroke="#000" stroke-miterlimit="10" fill="none"/><path d="M141.172 158.71l-4.15 7.798" stroke-width="1.2" stroke="#f00" stroke-miterlimit="10" fill="none"/><path d="M137.023 166.508l-4.148 7.797" stroke-width="1.2" stroke="#000" stroke-miterlimit="10" fill="none"/><path d="M137.172 153.21h8v11h-8zm0 0" fill="#fff"/><use xlink:href="#a" x="137.172" y="161.874" fill="#f00"/></g></svg>
